X:1
T:Title
%%score [ ( 1 2 ) ( 3 4 ) ]
L:1/8
Q:1/4=240
M:4/4
K:Bb
V:1 treble nm="Midi_74"
V:2 treble 
V:3 bass nm="Midi_74"
V:4 bass 
V:1
"^J. Barnby\n(1838-96)" G8 | G4 B4 | A8 || A8 | B4 A4 | B4 c4 | d8 || d8 | e4 d4 | c8 || B8 | %11
 A4 B2 c2 | B4 A4 | G8 |] %14
V:2
 D8 | D4 D4 | E8 || D8 | D4 D4 | G4 G4 | F8 || F8 | E4 F4 | G8 || G8 | G4 G4 | G4 ^F4 | G8 |] %14
V:3
 B,8 | B,4 B,4 | C8 || C8 | B,4 D4 | G,4 A,4 | B,8 || G,8 | G,4 =B,4 | C8 || D8 | E4 C4 | D6 C2 | %13
 B,8 |] %14
V:4
 G,8 | G,4 G,4 | G,8 || ^F,8 | G,4 =F,4 | E,4 E,4 | B,,8 || =B,,8 | C,4 D,4 | E,8 || D,8 | %11
 C,4 E,4 | D,4 D,4 | G,8 |] %14

